assets/icons/save-as-24.svg

<?xml version="1.0" encoding="UTF-8" standalone="no"?>
<svg
   width="24"
   height="24"
   viewBox="0 0 24 24"
   fill="none"
   stroke="currentColor"
   stroke-width="1.5"
   stroke-linecap="round"
   stroke-linejoin="round"
   class="icon icon-tabler icons-tabler-outline icon-tabler-device-floppy"
   version="1.1"
   id="svg4"
   sodipodi:docname="save-as-24.svg"
   xml:space="preserve"
   inkscape:version="1.3.2 (091e20ef0f, 2023-11-25, custom)"
   xmlns:inkscape="http://www.inkscape.org/namespaces/inkscape"
   xmlns:sodipodi="http://sodipodi.sourceforge.net/DTD/sodipodi-0.dtd"
   xmlns="http://www.w3.org/2000/svg"
   xmlns:svg="http://www.w3.org/2000/svg"><defs
     id="defs4" /><sodipodi:namedview
     id="namedview4"
     pagecolor="#505050"
     bordercolor="#eeeeee"
     borderopacity="1"
     inkscape:showpageshadow="0"
     inkscape:pageopacity="0"
     inkscape:pagecheckerboard="0"
     inkscape:deskcolor="#505050"
     inkscape:zoom="17.67767"
     inkscape:cx="25.682118"
     inkscape:cy="3.1678384"
     inkscape:window-width="2560"
     inkscape:window-height="1382"
     inkscape:window-x="0"
     inkscape:window-y="0"
     inkscape:window-maximized="1"
     inkscape:current-layer="svg4" /><path
     stroke="none"
     d="M0 0h24v24H0z"
     fill="none"
     id="path1" /><path
     id="path2"
     d="M 12.499999 19.999999 L 5.9999999 20 A 2 2 0 0 1 3.9999999 18 L 3.9999999 6 A 2 2 0 0 1 5.9999999 4 L 16 4 L 20 8 L 20 12.5 "
     style="fill:none" /><path
     d="M 14,4 V 8 H 7.9999999 V 4"
     id="path4" /><path
     d="m 16,19 h 6"
     id="path9"
     style="display:inline;fill:none;stroke:currentColor;stroke-width:1.5;stroke-linecap:round;stroke-linejoin:round" /><path
     d="m 19,16 v 6"
     id="path10"
     style="display:inline;fill:none;stroke:currentColor;stroke-width:1.5;stroke-linecap:round;stroke-linejoin:round" /><path
     d="m 12,14 m -2,0 a 2,2 0 1 0 4,0 2,2 0 1 0 -4,0"
     id="path11"
     style="display:inline;fill:none;stroke:currentColor;stroke-width:1.5;stroke-linecap:round;stroke-linejoin:round" /></svg>

<svg  xmlns="http://www.w3.org/2000/svg"  width="24"  height="24"  viewBox="0 0 24 24"  fill="none"  stroke="currentColor"  stroke-width="1.5"  stroke-linecap="round"  stroke-linejoin="round"  class="icon icon-tabler icons-tabler-outline icon-tabler-device-floppy"><path stroke="none" d="M0 0h24v24H0z" fill="none"/><path d="M6 4h10l4 4v10a2 2 0 0 1 -2 2h-12a2 2 0 0 1 -2 -2v-12a2 2 0 0 1 2 -2" /><path d="M12 14m-2 0a2 2 0 1 0 4 0a2 2 0 1 0 -4 0" /><path d="M14 4l0 4l-6 0l0 -4" /></svg>
